images/discord.svg

<svg width="192" height="192" viewBox="0 0 192 192" fill="none" xmlns="http://www.w3.org/2000/svg">
<path d="M68 138L60 154C49.8095 149.754 39.2584 145.508 28.0405 138.2C24.128 135.651 21.7564 131.32 21.6615 126.652C21.1739 102.688 26.796 78.5956 41.031 53.1237C42.8943 49.7896 45.9982 47.346 49.5976 46.0684C58.1857 43.0201 64.0163 40.664 74 39L80 50C80 50 86 48 96 48C106 48 112 50 112 50L118 39C127.984 40.664 133.814 43.0201 142.402 46.0684C146.002 47.346 149.106 49.7896 150.969 53.1237C165.204 78.5956 170.826 102.688 170.339 126.652C170.244 131.32 167.872 135.651 163.96 138.2C152.742 145.508 142.191 149.754 132 154L124 138M56 130C56 130 76 140 96 140C116 140 136 130 136 130" stroke="black" stroke-width="12" stroke-linecap="round" stroke-linejoin="round"/>
<ellipse cx="71" cy="101" rx="13" ry="15" fill="black"/>
<ellipse cx="121" cy="101" rx="13" ry="15" fill="black"/>
</svg>

<svg width="192" height="192" fill="none" xmlns="http://www.w3.org/2000/svg"><path d="m68 138-8 16c-10.19-4.246-20.742-8.492-31.96-15.8-3.912-2.549-6.284-6.88-6.378-11.548-.488-23.964 5.134-48.056 19.369-73.528 1.863-3.334 4.967-5.778 8.567-7.056C58.186 43.02 64.016 40.664 74 39l6 11s6-2 16-2 16 2 16 2l6-11c9.984 1.664 15.814 4.02 24.402 7.068 3.6 1.278 6.704 3.722 8.567 7.056 14.235 25.472 19.857 49.564 19.37 73.528-.095 4.668-2.467 8.999-6.379 11.548-11.218 7.308-21.769 11.554-31.96 15.8l-8-16m-68-8s20 10 40 10 40-10 40-10" stroke="#000" stroke-width="12" stroke-linecap="round" stroke-linejoin="round"/><ellipse cx="71" cy="101" rx="13" ry="15" fill="#000"/><ellipse cx="121" cy="101" rx="13" ry="15" fill="#000"/></svg>
